assets/launcher_button.svg

<svg height="32" viewBox="0 0 34 32" width="34" xmlns="http://www.w3.org/2000/svg"><path d="m25.7865398 7.37051863c0 1.03751255-.7433372 1.66849227-1.2861237 2.13153779-.2055644.17538746-.588189.49540588-.5871677.61494108.0037139.4688949-.3673048.8433504-.8288498.8433504-.0023211 0-.0046423 0-.0069635 0-.4582953 0-.831728-.3629454-.8354419-.8294817-.007335-.91958123.6530894-1.47027331 1.1838057-1.92303522.4164211-.35530347.6894857-.60531787.6894857-.83410462 0-.46313987-.370833-.83995401-.8266214-.83995401-.4559742 0-.8269.37681414-.8269.83995401 0 .46898926-.3740826.84910548-.8356276.84910548s-.8356276-.38011622-.8356276-.84910548c0-1.39951453 1.1205766-2.53816498 2.4979695-2.53816498 1.3774857-.00009435 2.4980623 1.13534838 2.4980623 2.53495725zm-2.6859857 4.37364797c-.461545 0-.817151.3801162-.817151.8491055v.0065098c0 .4689893.3556989.8458978.817151.8458978.4614522 0 .8356276-.3834183.8356276-.8524076s-.3740826-.8491055-.8356276-.8491055zm-16.8433745 5.9147745c-.46154498 0-.83562761.3801162-.83562761.8491055 0 .4689892.37408263.8491054.83562761.8491054h.06963564c.46154499 0 .83562762-.3801162.83562762-.8491054 0-.4689893-.37408263-.8491055-.83562762-.8491055zm2.90417737 0c-.46154499 0-.83562762.3801162-.83562762.8491055 0 .4689892.37408263.8491054.83562762.8491054h.06954278c.46154499 0 .83562765-.3801162.83562765-.8491054 0-.4689893-.37408266-.8491055-.83562765-.8491055zm24.54229033-13.56200715v9.55724825c0 2.2628661-1.7856434 4.0991039-4.012591 4.0991039h-10.8368832c-.211878 0-.3863385-.0012265-.5322948-.0043398-.1529198-.0032078-.3250591-.0044343-.3921879.0031133-.0699142.0471726-.2413107.2067101-.4064864.3613416-.0654575.0612299-.1395498.1285923-.2194915.2027475l-3.0660106 2.8395974c-.2445604.2267112-.6063871.2853938-.9092557.1497256-.3028686-.1357625-.5154894-.440497-.5154894-.7768371v-9.002122h-8.75366353c-1.30562173 0-2.38803803 1.087138-2.38803803 2.4136295v9.5572483c0 1.3265858 1.08250915 2.3695703 2.38803803 2.3695703h12.10490163c.2084427 0 .4034225.0972698.5573637.2401082l2.4978766 2.3401347v-8.0701815c0-.4689893.3740826-.8491055.8356276-.8491055s.8356277.3801162.8356277.8491055v9.9947263c0 .3363401-.189409.636546-.4923704.7723086-.1083531.0485877-.2171703.0677397-.3310942.0677397-.204636 0-.4064865-.0853823-.5634916-.231051l-3.6634843-3.4156683h-11.78095673c-2.22704045 0-4.05929327-1.8048209-4.05929327-4.0677814v-9.5571539c0-2.2628661 1.83225282-4.11184048 4.05929327-4.11184048h8.75366353v-5.73136767c0-2.26296045 1.8462728-4.08051791 4.0733133-4.08051791h12.804879c2.2268548 0 4.0124982 1.81755746 4.0124982 4.08051791zm-1.6712553 0c0-1.32658579-1.0358997-2.38230695-2.3413357-2.38230695h-12.8047862c-1.3055289 0-2.4020581 1.05572116-2.4020581 2.38230695v6.58839815 7.9187577l1.6800758-1.5428246c.0778062-.072174.16499-.1382155.2285906-.1978416.767199-.7183433.9634786-.8331612 1.9641891-.8122166.1364859.0029247.2990619.0039625.4971056.0039625h10.8368832c1.305436 0 2.3413357-1.0744015 2.3413357-2.4008929z" fill="#fff" transform="translate(.206933 .607825)"/></svg>

<?xml version="1.0" encoding="UTF-8"?>
<svg width="34px" height="32px" viewBox="0 0 34 32" version="1.1" xmlns="http://www.w3.org/2000/svg" xmlns:xlink="http://www.w3.org/1999/xlink">
    <!-- Generator: Sketch 45.1 (43504) - http://www.bohemiancoding.com/sketch -->
    <title>ic_button</title>
    <desc>Created with Sketch.</desc>
    <defs></defs>
    <g id="Page-1" stroke="none" stroke-width="1" fill="none" fill-rule="evenodd">
        <g id="Desktop-HD" transform="translate(-1299.000000, -748.000000)" fill-rule="nonzero" fill="#FFFFFF">
            <g id="Group-2" transform="translate(1289.000000, 735.000000)">
                <g id="ic_button" transform="translate(10.206933, 13.607825)">
                    <path d="M25.7865398,7.37051863 C25.7865398,8.40803118 25.0432026,9.0390109 24.5004161,9.50205642 C24.2948517,9.67744388 23.9122271,9.9974623 23.9132484,10.1169975 C23.9169623,10.5858924 23.5459436,10.9603479 23.0843986,10.9603479 C23.0820775,10.9603479 23.0797563,10.9603479 23.0774351,10.9603479 C22.6191398,10.9603479 22.2457071,10.5974025 22.2419932,10.1308662 C22.2346582,9.21128497 22.8950826,8.66059289 23.4257989,8.20783098 C23.84222,7.85252751 24.1152846,7.60251311 24.1152846,7.37372636 C24.1152846,6.91058649 23.7444516,6.53377235 23.2886632,6.53377235 C22.832689,6.53377235 22.4617632,6.91058649 22.4617632,7.37372636 C22.4617632,7.84271562 22.0876806,8.22283184 21.6261356,8.22283184 C21.1645906,8.22283184 20.790508,7.84271562 20.790508,7.37372636 C20.790508,5.97421183 21.9110846,4.83556138 23.2884775,4.83556138 C24.6659632,4.83546703 25.7865398,5.97090976 25.7865398,7.37051863 Z M23.1005541,11.7441666 C22.6390091,11.7441666 22.2834031,12.1242828 22.2834031,12.5932721 L22.2834031,12.5997819 C22.2834031,13.0687712 22.639102,13.4456797 23.1005541,13.4456797 C23.5620063,13.4456797 23.9361817,13.0622614 23.9361817,12.5932721 C23.9361817,12.1242828 23.5620991,11.7441666 23.1005541,11.7441666 Z M6.2571796,17.6589411 C5.79563462,17.6589411 5.42155199,18.0390573 5.42155199,18.5080466 C5.42155199,18.9770358 5.79563462,19.357152 6.2571796,19.357152 L6.32681524,19.357152 C6.78836023,19.357152 7.16244286,18.9770358 7.16244286,18.5080466 C7.16244286,18.0390573 6.78836023,17.6589411 6.32681524,17.6589411 L6.2571796,17.6589411 Z M9.16135697,17.6589411 C8.69981198,17.6589411 8.32572935,18.0390573 8.32572935,18.5080466 C8.32572935,18.9770358 8.69981198,19.357152 9.16135697,19.357152 L9.23089975,19.357152 C9.69244474,19.357152 10.0665274,18.9770358 10.0665274,18.5080466 C10.0665274,18.0390573 9.69244474,17.6589411 9.23089975,17.6589411 L9.16135697,17.6589411 Z M33.7036473,4.09693395 L33.7036473,13.6541822 C33.7036473,15.9170483 31.9180039,17.7532861 29.6910563,17.7532861 L18.8541731,17.7532861 C18.6422951,17.7532861 18.4678346,17.7520596 18.3218783,17.7489463 C18.1689585,17.7457385 17.9968192,17.744512 17.9296904,17.7520596 C17.8597762,17.7992322 17.6883797,17.9587697 17.523204,18.1134012 C17.4577465,18.1746311 17.3836542,18.2419935 17.3037125,18.3161487 L14.2377019,21.1557461 C13.9931415,21.3824573 13.6313148,21.4411399 13.3284462,21.3054717 C13.0255776,21.1697092 12.8129568,20.8649747 12.8129568,20.5286346 L12.8129568,11.5265126 L4.05929327,11.5265126 C2.75367154,11.5265126 1.67125524,12.6136506 1.67125524,13.9401421 L1.67125524,23.4973904 C1.67125524,24.8239762 2.75376439,25.8669607 4.05929327,25.8669607 L16.1641949,25.8669607 C16.3726376,25.8669607 16.5676174,25.9642305 16.7215586,26.1070689 L19.2194352,28.4472036 L19.2194352,20.3770221 C19.2194352,19.9080328 19.5935178,19.5279166 20.0550628,19.5279166 C20.5166078,19.5279166 20.8906905,19.9080328 20.8906905,20.3770221 L20.8906905,30.3717484 C20.8906905,30.7080885 20.7012815,31.0082944 20.3983201,31.144057 C20.289967,31.1926447 20.1811498,31.2117967 20.0672259,31.2117967 C19.8625899,31.2117967 19.6607394,31.1264144 19.5037343,30.9807457 L15.84025,27.5650774 L4.05929327,27.5650774 C1.83225282,27.5650774 0,25.7602565 0,23.497296 L0,13.9401421 C0,11.677276 1.83225282,9.82830162 4.05929327,9.82830162 L12.8129568,9.82830162 L12.8129568,4.09693395 C12.8129568,1.8339735 14.6592296,0.0164160393 16.8862701,0.0164160393 L29.6911491,0.0164160393 C31.9180039,0.0164160393 33.7036473,1.8339735 33.7036473,4.09693395 Z M32.032392,4.09693395 C32.032392,2.77034816 30.9964923,1.714627 29.6910563,1.714627 L16.8862701,1.714627 C15.5807412,1.714627 14.484212,2.77034816 14.484212,4.09693395 L14.484212,10.6853321 L14.484212,18.6040898 L16.1642878,17.0612652 C16.242094,16.9890912 16.3292778,16.9230497 16.3928784,16.8634236 C17.1600774,16.1450803 17.356357,16.0302624 18.3570675,16.051207 C18.4935534,16.0541317 18.6561294,16.0551695 18.8541731,16.0551695 L29.6910563,16.0551695 C30.9964923,16.0551695 32.032392,14.980768 32.032392,13.6542766 L32.032392,4.09693395 Z" id="Shape"></path>
                </g>
            </g>
        </g>
    </g>
</svg>
